!!!Genre:	Freylekhs (fun der khupe)
!!!Mode:	Altered Dorian
!!!Listening/dance:	listening
!!!One_Mode:	no
**kern
*thru
*clefG2
*k[b-]
*g:dor
*M2/4
*>A
24ddLL
24ee
24ddJJ
=1
8cc#L
8ddJ
8eeL
8ddJ
=2
(8cc#L
8b-J)
(8aL
8gJ)
=3
(16cc#LL
16eeJJ
[4.dd)
=4
4dd]
8r
8g
=5
8ggL
8ffJ
8eeL
8ddJ
=6
(8.cc#XL
16b-Jk)
(16cc#LL
16b-
16a
16gJJ)
=7
(16cc#LL
16eeJJ
[4.dd)
=8
4dd_
16ddLL]
16dd
16ee
16ddJJ
=9
(16cc#LL
16dd
16ee
16ddJJ)
(16cc#LL
16dd
16ee
16ddJJ)
=10
(16cc#LL
16dd
16ee
16ddJJ
16cc#LL
16b-
16a
16gJJ)
=11
4.ccn
8dd
=12
2ee-X
=13
8ddL
8cc#XJ
16ddLL
16cc#J
8b-J
=14
16ddLL
16cc#J
8b-J
16b-LL
16aJ
8gJ
=15
2g
=16
4g
4r
*>bM
*g:
!LO:TX:a:i:t=G-minor
=17||
*>B
*k[b-e-]
16ff#XLL
16aaJ
8ggJ
8ggL
8ggJ
=18
4gg
8r
8dd
=19
16ddLL
16ggJ
8ggJ
8ggL
8ggJ
=20
4.gg
8dd
=21
4.bb-
16aaLL
16ggJJ
=22
4bb-
8aaL
8ggJ
=23
8.ff#XL
16ggJk
8aaL
8ggJ
=24
8.ff#XtL
16ee-Jk
[4dd
=25
8ddL]
8ff#XJ
8aaL
8ff#J
=26
8aaL
8bb-J
8ff#XL
8aaJ
=27
4.gg
8dd
*>eM
*g:dor
!LO:TX:a:i:t=G-dorian
=28
(16ddLL
16cc#X)
(16cc#
16b-JJ)
(16b-LL
16a)
(16a
16gJJ)
=29
8.b-TL
16aJk
16b-LL
16aJ
8gJ
=30
8.b-L
16aJk
16b-LL
16aJ
8gJ
=31
2ccn
=32
4.gg
8ee-
=33
8ddL
8cc#XJ
16ddLL
16cc#J
8b-J
=34
16ddLL
16cc#XJ
8b-J
16b-LL
16aJ
8gJ
=35
4.g
8r
=36
4.gg
==
*-
